images_elementary_svg/cmd/32/nl/bold.svg

<?xml version="1.0" encoding="UTF-8" standalone="no"?>
<svg
   xmlns:dc="http://purl.org/dc/elements/1.1/"
   xmlns:cc="http://creativecommons.org/ns#"
   xmlns:rdf="http://www.w3.org/1999/02/22-rdf-syntax-ns#"
   xmlns:svg="http://www.w3.org/2000/svg"
   xmlns="http://www.w3.org/2000/svg"
   xmlns:xlink="http://www.w3.org/1999/xlink"
   xmlns:sodipodi="http://sodipodi.sourceforge.net/DTD/sodipodi-0.dtd"
   xmlns:inkscape="http://www.inkscape.org/namespaces/inkscape"
   height="32"
   width="32"
   version="1.1"
   id="svg41"
   sodipodi:docname="bold.svg"
   inkscape:version="0.92.4 (unknown)"
   inkscape:export-filename="/home/rizmut/Dokumen/Rizmut/Github/libreoffice-style-elementary/images_elementary/cmd/32/nl/bold.png"
   inkscape:export-xdpi="96"
   inkscape:export-ydpi="96">
  <metadata
     id="metadata47">
    <rdf:RDF>
      <cc:Work
         rdf:about="">
        <dc:format>image/svg+xml</dc:format>
        <dc:type
           rdf:resource="http://purl.org/dc/dcmitype/StillImage" />
        <dc:title />
      </cc:Work>
    </rdf:RDF>
  </metadata>
  <defs
     id="defs45">
    <radialGradient
       inkscape:collect="always"
       xlink:href="#c"
       id="radialGradient860"
       cx="13.201247"
       cy="12.676107"
       fx="13.201247"
       fy="12.676107"
       r="6.7003856"
       gradientTransform="matrix(0.14879841,3.7199544,-2.819107,0.11276447,46.972225,-39.269329)"
       gradientUnits="userSpaceOnUse" />
  </defs>
  <sodipodi:namedview
     pagecolor="#ffffff"
     bordercolor="#666666"
     borderopacity="1"
     objecttolerance="10"
     gridtolerance="10"
     guidetolerance="10"
     inkscape:pageopacity="0"
     inkscape:pageshadow="2"
     inkscape:window-width="1366"
     inkscape:window-height="714"
     id="namedview43"
     showgrid="true"
     inkscape:zoom="11.313709"
     inkscape:cx="-6.1705222"
     inkscape:cy="12.230029"
     inkscape:window-x="0"
     inkscape:window-y="28"
     inkscape:window-maximized="1"
     inkscape:current-layer="svg41">
    <inkscape:grid
       type="xygrid"
       id="grid854" />
  </sodipodi:namedview>
  <linearGradient
     id="a">
    <stop
       offset="0"
       id="stop2" />
    <stop
       offset="1"
       stop-opacity="0"
       id="stop4" />
  </linearGradient>
  <linearGradient
     id="b"
     gradientUnits="userSpaceOnUse"
     x1="17"
     x2="17"
     y1="46.5"
     y2="43.5">
    <stop
       offset="0"
       stop-opacity="0"
       id="stop7" />
    <stop
       offset=".5"
       id="stop9" />
    <stop
       offset="1"
       stop-opacity="0"
       id="stop11" />
  </linearGradient>
  <radialGradient
     id="c"
     cx="13.325464"
     cy="8.331412"
     gradientTransform="matrix(-3.7117719 .11187051 -.21033005 -6.7825606 65.528784 64.934853)"
     gradientUnits="userSpaceOnUse"
     r="5.349211">
    <stop
       offset="0"
       stop-color="#737373"
       id="stop14" />
    <stop
       offset=".26238"
       stop-color="#636363"
       id="stop16" />
    <stop
       offset=".704952"
       stop-color="#4b4b4b"
       id="stop18" />
    <stop
       offset="1"
       stop-color="#3f3f3f"
       id="stop20" />
  </radialGradient>
  <radialGradient
     id="d"
     cx="40"
     cy="43.5"
     gradientTransform="matrix(1,0,0,0.75,-37.806295,12.375)"
     gradientUnits="userSpaceOnUse"
     r="2"
     xlink:href="#a" />
  <radialGradient
     id="e"
     cx="9"
     cy="43.5"
     gradientTransform="matrix(1,0,0,0.75,-10.11138,12.375)"
     gradientUnits="userSpaceOnUse"
     r="2"
     xlink:href="#a" />
  <g
     transform="matrix(1.33333 0 0 1.313771 -1.472041 -10.913521)"
     id="g39">
    <text
       xml:space="preserve"
       style="font-style:normal;font-weight:normal;font-size:22.22249413px;line-height:1.25;font-family:sans-serif;letter-spacing:0px;word-spacing:0px;fill:url(#radialGradient860);fill-opacity:1;stroke:none;stroke-width:0.55556238"
       x="5.5381589"
       y="28.268246"
       id="text858"
       transform="scale(0.99263828,1.0074163)"><tspan
         sodipodi:role="line"
         id="tspan856"
         x="5.5381589"
         y="28.268246"
         style="font-style:normal;font-variant:normal;font-weight:bold;font-stretch:normal;font-family:'Droid Sans';-inkscape-font-specification:'Droid Sans Bold';fill:url(#radialGradient860);fill-opacity:1;stroke-width:0.55556238">V</tspan></text>
    <g
       transform="matrix(0.73633307,0,0,1,11.863767,-16.119119)"
       id="g31">
      <path
         d="m 2.1937049,43.5 v 3 h 0.5 c 0.8310005,0 1.5000005,-0.669 1.5000005,-1.5 0,-0.831 -0.669,-1.5 -1.5000005,-1.5 z"
         id="path25"
         style="opacity:0.2;fill:url(#d)"
         inkscape:connector-curvature="0" />
      <path
         d="m -1.7051301,43.5 c -0.7790625,0 -1.40625,0.627187 -1.40625,1.40625 v 0.1875 c 0,0.779063 0.6271875,1.40625 1.40625,1.40625 h 0.59375 v -3 z"
         id="path27"
         style="opacity:0.2;fill:url(#e)"
         inkscape:connector-curvature="0" />
      <path
         d="m -1.1113801,43.5 3.305085,0 v 3 l -3.305085,0 z"
         id="path29"
         inkscape:connector-curvature="0"
         style="opacity:0.2;fill:url(#b)"
         sodipodi:nodetypes="ccccc" />
    </g>
    <g
       aria-label="V"
       transform="scale(0.99263828,1.0074163)"
       style="font-style:normal;font-weight:normal;font-size:22.22249413px;line-height:1.25;font-family:sans-serif;letter-spacing:0px;word-spacing:0px;opacity:0.61000001;fill:none;fill-opacity:1;stroke:#000000;stroke-width:0.75556415;stroke-miterlimit:4;stroke-dasharray:none;stroke-opacity:1"
       id="text1570">
      <path
         d="m 15.694533,12.404336 h 3.396309 l -4.947977,15.86391 h -3.66758 L 5.5381589,12.404336 h 3.3963089 l 2.6910052,9.548728 q 0.05425,0.184464 0.141061,0.618497 0.09766,0.434034 0.195315,0.954873 0.108508,0.52084 0.206165,1.04168 0.09766,0.520839 0.151912,0.878917 0.05425,-0.358078 0.151911,-0.878917 0.09766,-0.52084 0.206166,-1.030829 0.108508,-0.52084 0.206166,-0.954873 0.108508,-0.434033 0.162762,-0.629348 z"
         style="font-style:normal;font-variant:normal;font-weight:bold;font-stretch:normal;font-family:'Droid Sans';-inkscape-font-specification:'Droid Sans Bold';fill:none;fill-opacity:1;stroke:#000000;stroke-width:0.75556415;stroke-miterlimit:4;stroke-dasharray:none;stroke-opacity:1"
         id="path840" />
    </g>
    <path
       style="font-style:normal;font-weight:normal;font-size:22.22249413px;line-height:1.25;font-family:sans-serif;letter-spacing:0px;word-spacing:0px;opacity:0.2;fill:#ffffff;fill-opacity:1;stroke:none;stroke-width:1;stroke-miterlimit:4;stroke-dasharray:none;stroke-opacity:1"
       d="M 5.8574219 5.5039062 L 6.3242188 7.0039062 L 10.353516 7.0039062 L 13.914062 19.642578 C 13.961933 19.805339 14.024969 20.077971 14.101562 20.460938 C 14.18773 20.843904 14.273208 21.26505 14.359375 21.724609 C 14.455117 22.184169 14.546645 22.643956 14.632812 23.103516 C 14.71898 23.563075 14.786114 23.949678 14.833984 24.265625 C 14.881855 23.949678 14.948989 23.563075 15.035156 23.103516 C 15.121324 22.643956 15.210899 22.188266 15.306641 21.738281 C 15.402382 21.278722 15.493911 20.857575 15.580078 20.474609 C 15.67582 20.091643 15.747051 19.814913 15.794922 19.642578 L 19.300781 7.0039062 L 23.326172 7.0039062 L 23.794922 5.5039062 L 19.300781 5.5039062 L 15.794922 18.142578 C 15.747051 18.314913 15.67582 18.591643 15.580078 18.974609 C 15.493911 19.357575 15.402382 19.778722 15.306641 20.238281 C 15.210899 20.688266 15.121324 21.143956 15.035156 21.603516 C 14.948989 22.063075 14.881855 22.449678 14.833984 22.765625 C 14.786114 22.449678 14.71898 22.063075 14.632812 21.603516 C 14.546645 21.143956 14.455117 20.684169 14.359375 20.224609 C 14.273208 19.76505 14.18773 19.343904 14.101562 18.960938 C 14.024969 18.577971 13.961933 18.305339 13.914062 18.142578 L 10.353516 5.5039062 L 5.8574219 5.5039062 z "
       transform="matrix(0.75000188,0,0,0.76116766,1.1040335,8.3070193)"
       id="text2159" />
  </g>
</svg>

<svg height="32" width="32" xmlns="http://www.w3.org/2000/svg" xmlns:xlink="http://www.w3.org/1999/xlink"><radialGradient id="a" cx="13.201247" cy="12.676107" gradientTransform="matrix(.14879841 3.7199544 -2.819107 .11276447 46.972225 -39.269329)" gradientUnits="userSpaceOnUse" r="6.700386"><stop offset="0" stop-color="#737373"/><stop offset=".26238" stop-color="#636363"/><stop offset=".704952" stop-color="#4b4b4b"/><stop offset="1" stop-color="#3f3f3f"/></radialGradient><linearGradient id="b"><stop offset="0"/><stop offset="1" stop-opacity="0"/></linearGradient><linearGradient id="c" gradientUnits="userSpaceOnUse" x1="17" x2="17" y1="46.5" y2="43.5"><stop offset="0" stop-opacity="0"/><stop offset=".5"/><stop offset="1" stop-opacity="0"/></linearGradient><radialGradient id="d" cx="40" cy="43.5" gradientTransform="matrix(1 0 0 .75 -37.806295 12.375)" gradientUnits="userSpaceOnUse" r="2" xlink:href="#b"/><radialGradient id="e" cx="9" cy="43.5" gradientTransform="matrix(1 0 0 .75 -10.11138 12.375)" gradientUnits="userSpaceOnUse" r="2" xlink:href="#b"/><text style="font-size:22.222494;font-family:sans-serif;letter-spacing:0;word-spacing:0;stroke-width:.555562;fill:url(#a)" transform="matrix(1.3235144 0 0 1.32351432 -1.472041 -10.913521)" x="5.538159" y="28.268246"><tspan fill="url(#a)" font-family="Droid Sans" font-weight="bold" stroke-width=".555562" x="5.538159" y="28.268246">V</tspan></text><g transform="matrix(.98177497 0 0 1.313771 14.346275 -32.090352)"><path d="m2.1937049 43.5v3h.5c.8310005 0 1.5000005-.669 1.5000005-1.5s-.669-1.5-1.5000005-1.5z" fill="url(#d)" opacity=".2"/><path d="m-1.7051301 43.5c-.7790625 0-1.40625.627187-1.40625 1.40625v.1875c0 .779063.6271875 1.40625 1.40625 1.40625h.59375v-3z" fill="url(#e)" opacity=".2"/><path d="m-1.1113801 43.5h3.305085v3h-3.305085z" fill="url(#c)" opacity=".2"/></g><path d="m15.694533 12.404336h3.396309l-4.947977 15.86391h-3.66758l-4.9371261-15.86391h3.3963089l2.6910052 9.548728q.05425.184464.141061.618497.09766.434034.195315.954873.108508.52084.206165 1.04168.09766.520839.151912.878917.05425-.358078.151911-.878917.09766-.52084.206166-1.030829.108508-.52084.206166-.954873.108508-.434033.162762-.629348z" fill="none" opacity=".61" stroke="#000" stroke-width=".755564" transform="matrix(1.3235144 0 0 1.32351432 -1.472041 -10.913521)"/><path d="m5.8574219 5.5039062.4667969 1.5h4.0292972l3.560546 12.6386718c.047871.162761.110907.435393.1875.81836.086168.382966.171646.804112.257813 1.263671.095742.45956.18727.919347.273437 1.378907.086168.459559.153302.846162.201172 1.162109.047871-.315947.115005-.70255.201172-1.162109.086168-.45956.175743-.91525.271485-1.365235.095741-.459559.18727-.880706.273437-1.263672.095742-.382966.166973-.659696.214844-.832031l3.505859-12.6386718h4.025391l.46875-1.5h-4.494141l-3.505859 12.6386718c-.047871.172335-.119102.449065-.214844.832031-.086167.382966-.177696.804113-.273437 1.263672-.095742.449985-.185317.905675-.271485 1.365235-.086167.459559-.153301.846162-.201172 1.162109-.04787-.315947-.115004-.70255-.201172-1.162109-.086167-.45956-.177695-.919347-.273437-1.378907-.086167-.459559-.171645-.880705-.257813-1.263671-.076593-.382967-.139629-.655599-.1875-.81836l-3.560546-12.6386718z" fill="#fff" opacity=".2" transform="matrix(1.00000001 0 0 1 .000001 0)"/></svg>
